alura/assets/api/formacoes/categorias/inteligencia-artificial.svg

<svg width="65" height="65" viewBox="0 0 65 65" fill="none" xmlns="http://www.w3.org/2000/svg">
<g clip-path="url(#clip0_5175_247)">
<path d="M32.5 65C50.4493 65 65 50.4493 65 32.5C65 14.5507 50.4493 0 32.5 0C14.5507 0 0 14.5507 0 32.5C0 50.4493 14.5507 65 32.5 65Z" fill="#7B71FF"/>
<rect x="18.647" y="21.275" width="27.9987" height="29.6457" rx="5.48995" fill="#F2F0FF"/>
<path d="M27.9162 14.6178H24.7477V22.2223H27.9162V14.6178Z" fill="#7B71FF"/>
<path d="M34.2533 7.64713H31.0848V20.3212H34.2533V7.64713Z" fill="#7B71FF"/>
<path d="M41.2241 12.7167H38.0555V22.2222H41.2241V12.7167Z" fill="#7B71FF"/>
<path fill-rule="evenodd" clip-rule="evenodd" d="M31.3495 19.494V7.64713H34.6308V19.494" fill="#7B71FF"/>
<path d="M31.3495 19.494V7.64713H34.6308V19.494" stroke="#242938" stroke-width="2.08935" stroke-linecap="square"/>
<path fill-rule="evenodd" clip-rule="evenodd" d="M24.7869 21.962V14.2099H28.0682V20.2257" fill="#7B71FF"/>
<path d="M24.7869 21.962V14.2099H28.0682V20.2257" stroke="#242938" stroke-width="2.08935" stroke-linecap="square"/>
<path fill-rule="evenodd" clip-rule="evenodd" d="M37.9122 20.2257V12.0223H41.1936V21.962" fill="#7B71FF"/>
<path d="M37.9122 20.2257V12.0223H41.1936V21.962" stroke="#242938" stroke-width="2.08935" stroke-linecap="square"/>
<circle cx="23.8624" cy="36.3724" r="2.47048" fill="#7B71FF"/>
<circle cx="30.4503" cy="42.4113" r="2.47048" fill="#7B71FF"/>
<circle cx="30.4503" cy="29.7844" r="2.47048" fill="#7B71FF"/>
<circle cx="40.3323" cy="29.7844" r="2.47048" fill="#7B71FF"/>
<path d="M41.9797 20.177H23.8619C20.0782 20.177 17 23.2552 17 27.039V45.1568C17 48.9405 20.0782 52.0187 23.8619 52.0187H41.9797C45.7635 52.0187 48.8417 48.9405 48.8417 45.1568V27.039C48.8417 23.2552 45.7635 20.177 41.9797 20.177ZM45.9607 45.1568C45.9607 47.3521 44.1751 49.1377 41.9797 49.1377H23.8619C21.6666 49.1377 19.881 47.3521 19.881 45.1568V37.3787H20.8977C21.4131 38.7116 22.7076 39.6598 24.2205 39.6598C24.7346 39.6598 25.2231 39.5497 25.6642 39.3525L27.4427 41.131C27.3723 41.2898 27.3121 41.4563 27.2648 41.6291C27.0119 42.5466 27.131 43.5069 27.6009 44.3341C28.0708 45.1613 28.8346 45.7567 29.7514 46.0096C30.0664 46.0966 30.3859 46.1395 30.7041 46.1395C31.3123 46.1395 31.9134 45.982 32.457 45.6734C33.2842 45.2035 33.8796 44.4397 34.1325 43.5229C34.6549 41.6298 33.539 39.6643 31.6458 39.1425C30.8206 38.9152 29.9825 38.9984 29.2552 39.3217L27.4754 37.5419C27.6719 37.1002 27.7821 36.6117 27.7821 36.0982C27.7821 35.5841 27.6719 35.0956 27.4748 34.6538L29.2527 32.8759C29.4127 32.9464 29.5792 33.0059 29.7508 33.0533C30.0664 33.1403 30.3839 33.182 30.6964 33.182C32.1458 33.182 33.4865 32.2888 34.0204 30.9002H36.5704C36.6338 31.0635 36.7094 31.2229 36.7977 31.3784C37.2677 32.2056 38.0315 32.801 38.9483 33.0539C39.2633 33.141 39.5827 33.1839 39.9009 33.1839C40.5091 33.1839 41.1103 33.0264 41.6539 32.7178C42.481 32.2479 43.0764 31.4841 43.3293 30.5673C43.8518 28.6741 42.7358 26.7086 40.8427 26.1868C39.0635 25.6964 37.2216 26.6516 36.5724 28.3399H34.0204C33.6273 27.3232 32.7746 26.498 31.6452 26.1868C29.752 25.6651 27.7865 26.7803 27.2648 28.6735C27.0432 29.477 27.1073 30.3144 27.4427 31.0654L25.6642 32.8439C25.2224 32.6474 24.7346 32.5373 24.2205 32.5373C22.7076 32.5373 21.4131 33.4854 20.8977 34.8184H19.881V27.0396C19.881 24.8443 21.6666 23.0587 23.8619 23.0587H41.9797C44.1751 23.0587 45.9607 24.8443 45.9607 27.0396V45.1568ZM25.5413 36.0982C25.5413 36.8268 24.9484 37.419 24.2205 37.419C23.4925 37.419 22.8997 36.8261 22.8997 36.0982C22.8997 35.3696 23.4925 34.7774 24.2205 34.7774C24.9484 34.7774 25.5413 35.3696 25.5413 36.0982ZM30.0465 41.4274C30.2482 41.3128 30.471 41.2546 30.6964 41.2546C30.8142 41.2546 30.9326 41.2706 31.0498 41.3026C31.7521 41.496 32.1657 42.2252 31.9724 42.9275C31.8789 43.2675 31.658 43.5511 31.3513 43.7252C31.0447 43.8994 30.688 43.9435 30.3481 43.8501C30.0081 43.756 29.7245 43.5357 29.5504 43.229C29.3762 42.9224 29.3321 42.5658 29.4255 42.2258C29.519 41.8852 29.7399 41.6016 30.0465 41.4274ZM29.4249 29.2689C29.5862 28.6837 30.1189 28.299 30.6989 28.299C30.8148 28.299 30.9326 28.3143 31.0498 28.3463C31.7521 28.5397 32.1657 29.2689 31.9724 29.9712C31.7784 30.6736 31.0498 31.0871 30.3474 30.8938C30.0075 30.7997 29.7239 30.5794 29.5497 30.2728C29.3756 29.9648 29.3314 29.6089 29.4249 29.2689ZM38.6224 29.2689C38.7837 28.6837 39.3164 28.299 39.8964 28.299C40.0123 28.299 40.1301 28.3143 40.2473 28.3463C40.9496 28.5397 41.3632 29.2689 41.1698 29.9712C41.0764 30.3112 40.8555 30.5948 40.5488 30.7689C40.2422 30.9431 39.8855 30.9873 39.5456 30.8938C39.2056 30.7997 38.922 30.5794 38.7479 30.2728C38.5731 29.9648 38.5289 29.6089 38.6224 29.2689Z" fill="#242938"/>
<path d="M39.825 44.5291C40.334 44.311 41.4393 43.6129 41.7883 42.5658L44.6242 41.6933C44.8423 41.9841 45.8458 42.6095 48.1145 42.784C50.3831 42.9585 50.3686 45.7653 50.0777 47.1468L51.1685 49.5464L49.8596 51.5097L48.3326 51.946L46.5875 54.1274H44.6242L42.879 53.0367H40.9157L39.3887 51.5097L39.825 49.5464L38.7343 46.9287L39.825 44.5291Z" fill="#7B71FF" stroke="black" stroke-width="0.436286"/>
<path d="M44.0258 42.4348C44.4789 42.4348 44.8984 42.5786 45.2412 42.8229C44.3393 43.2927 43.5099 43.884 42.6297 44.3922L43.3277 45.6013C44.4272 44.966 45.4583 44.1702 46.6506 43.7123C46.9836 43.5852 47.3436 43.5453 47.6963 43.5961C48.0491 43.647 48.3831 43.7871 48.6667 44.003C48.9502 44.219 49.174 44.5038 49.3168 44.8303C49.4596 45.1569 49.5167 45.5145 49.4827 45.8693C48.6248 45.3228 47.6977 44.8997 46.8181 44.3922L46.1201 45.6013C47.2195 46.2365 48.4251 46.7308 49.4171 47.535C49.6935 47.7599 49.908 48.0516 50.0403 48.3826C50.1725 48.7135 50.2182 49.0727 50.1729 49.4262C50.1276 49.7797 49.9929 50.1158 49.7815 50.4027C49.5701 50.6896 49.2889 50.9179 48.9647 51.0658C49.0101 50.0494 48.9124 49.0351 48.9124 48.0194H47.5162C47.5162 49.2885 47.6907 50.58 47.4904 51.8421C47.4338 52.194 47.2883 52.5256 47.0678 52.8056C46.8473 53.0856 46.5589 53.3047 46.2301 53.4422C45.9012 53.5797 45.5428 53.631 45.1886 53.5913C44.8344 53.5516 44.4961 53.4221 44.2059 53.2152C45.1085 52.7454 45.9386 52.1541 46.8181 51.6466L46.1201 50.4376C45.0206 51.0728 43.9895 51.8686 42.7972 52.3266C42.4642 52.4536 42.1042 52.4936 41.7515 52.4427C41.3987 52.3918 41.0647 52.2518 40.7811 52.0358C40.4976 51.8198 40.2738 51.5351 40.131 51.2085C39.9882 50.8819 39.9311 50.5243 39.9651 50.1695C40.8237 50.7154 41.7501 51.1384 42.6297 51.6466L43.3277 50.4376C42.2283 49.8023 41.0227 49.3081 40.03 48.5039C39.7536 48.2789 39.5391 47.9871 39.4069 47.6562C39.2747 47.3252 39.2291 46.966 39.2745 46.6124C39.3199 46.2589 39.4547 45.9228 39.6661 45.636C39.8776 45.3491 40.1588 45.1209 40.4831 44.973C40.4377 45.9894 40.5354 47.0037 40.5354 48.0194H41.9316C41.9316 46.7503 41.7571 45.4582 41.9574 44.1968C42.0366 43.7052 42.2882 43.2579 42.6672 42.935C43.0463 42.6121 43.5279 42.4348 44.0258 42.4348ZM46.6736 42.2547C46.2699 41.7849 45.7485 41.431 45.1628 41.2292C44.5772 41.0275 43.9484 40.9852 43.341 41.1067C42.7336 41.2282 42.1695 41.5091 41.7065 41.9206C41.2435 42.3322 40.8984 42.8595 40.7065 43.4484C40.0977 43.5631 39.5305 43.8377 39.0629 44.2441C38.5953 44.6504 38.2443 45.1738 38.0458 45.7606C37.8474 46.3474 37.8086 46.9765 37.9335 47.5832C38.0585 48.1899 38.3426 48.7525 38.7567 49.2131C38.5516 49.7977 38.5058 50.4264 38.6239 51.0346C38.742 51.6427 39.0199 52.2085 39.4289 52.6738C39.8379 53.1392 40.3634 53.4872 40.9514 53.6824C41.5395 53.8775 42.1688 53.9126 42.7749 53.7841C43.1786 54.254 43.7 54.6079 44.2857 54.8096C44.8713 55.0114 45.5001 55.0537 46.1075 54.9322C46.7149 54.8107 47.279 54.5297 47.742 54.1182C48.205 53.7067 48.5501 53.1794 48.742 52.5904C49.3508 52.4757 49.918 52.2011 50.3856 51.7948C50.8532 51.3885 51.2042 50.865 51.4027 50.2782C51.6011 49.6914 51.6399 49.0624 51.5149 48.4557C51.39 47.8489 51.1059 47.2864 50.6918 46.8257C50.8969 46.2411 50.9427 45.6125 50.8246 45.0043C50.7065 44.3961 50.4286 43.8303 50.0196 43.365C49.6106 42.8997 49.0851 42.5516 48.4971 42.3565C47.909 42.1614 47.2797 42.1262 46.6736 42.2547Z" fill="black"/>
</g>
<defs>
<clipPath id="clip0_5175_247">
<rect width="65" height="65" fill="white"/>
</clipPath>
</defs>
</svg>

<svg xmlns="http://www.w3.org/2000/svg" fill="none" viewBox="0 0 65 65"><g clip-path="url(#clip0_5175_247)"><path fill="#7B71FF" d="M32.5 65C50.45 65 65 50.45 65 32.5S50.45 0 32.5 0 0 14.55 0 32.5 14.55 65 32.5 65z"/><rect width="27.999" height="29.646" x="18.647" y="21.275" fill="#F2F0FF" rx="5.49"/><path fill="#7B71FF" d="M27.916 14.618h-3.168v7.604h3.168v-7.604zm6.337-6.971h-3.168v12.674h3.168V7.647zm6.971 5.07h-3.168v9.505h3.168v-9.505z"/><path fill="#7B71FF" fill-rule="evenodd" d="M31.35 19.494V7.647h3.28v11.847" clip-rule="evenodd"/><path stroke="#242938" stroke-linecap="square" stroke-width="2.089" d="M31.35 19.494V7.647h3.28v11.847"/><path fill="#7B71FF" fill-rule="evenodd" d="M24.787 21.962V14.21h3.281v6.016" clip-rule="evenodd"/><path stroke="#242938" stroke-linecap="square" stroke-width="2.089" d="M24.787 21.962V14.21h3.281v6.016"/><path fill="#7B71FF" fill-rule="evenodd" d="M37.912 20.226v-8.204h3.282v9.94" clip-rule="evenodd"/><path stroke="#242938" stroke-linecap="square" stroke-width="2.089" d="M37.912 20.226v-8.204h3.282v9.94"/><circle cx="23.862" cy="36.372" r="2.47" fill="#7B71FF"/><circle cx="30.45" cy="42.411" r="2.47" fill="#7B71FF"/><circle cx="30.45" cy="29.784" r="2.47" fill="#7B71FF"/><circle cx="40.332" cy="29.784" r="2.47" fill="#7B71FF"/><path fill="#242938" d="M41.98 20.177H23.862A6.87 6.87 0 0017 27.039v18.118a6.87 6.87 0 006.862 6.862H41.98a6.87 6.87 0 006.862-6.862V27.039a6.87 6.87 0 00-6.862-6.862zm3.98 24.98a3.985 3.985 0 01-3.98 3.98H23.862a3.985 3.985 0 01-3.981-3.98v-7.778h1.017a3.567 3.567 0 003.323 2.28c.514 0 1.002-.11 1.443-.306l1.779 1.778a3.537 3.537 0 00.158 3.203 3.54 3.54 0 002.15 1.676 3.542 3.542 0 002.706-.336 3.54 3.54 0 001.675-2.151 3.565 3.565 0 00-2.486-4.38 3.546 3.546 0 00-2.39.179l-1.78-1.78a3.544 3.544 0 00-.001-2.888l1.778-1.778a3.638 3.638 0 001.443.306A3.57 3.57 0 0034.02 30.9h2.55c.064.164.14.323.228.478a3.541 3.541 0 002.15 1.676 3.542 3.542 0 002.706-.336 3.541 3.541 0 001.675-2.15 3.565 3.565 0 00-2.486-4.381 3.567 3.567 0 00-4.27 2.153H34.02a3.558 3.558 0 00-2.375-2.153 3.566 3.566 0 00-4.38 2.486 3.533 3.533 0 00.178 2.392l-1.779 1.779a3.542 3.542 0 00-1.444-.307 3.567 3.567 0 00-3.322 2.281H19.88V27.04a3.985 3.985 0 013.98-3.981h18.12a3.985 3.985 0 013.98 3.98v18.118zm-20.419-9.059c0 .729-.593 1.321-1.32 1.321a1.322 1.322 0 01-.001-2.642c.728 0 1.321.593 1.321 1.321zm4.506 5.33a1.312 1.312 0 011.003-.125 1.323 1.323 0 01.301 2.422 1.314 1.314 0 01-1.003.125 1.314 1.314 0 01-.798-.621 1.314 1.314 0 01-.125-1.003c.094-.34.315-.624.622-.799zm-.622-12.16a1.323 1.323 0 011.625-.922c.702.194 1.116.923.922 1.625a1.323 1.323 0 01-2.422.302 1.316 1.316 0 01-.125-1.004zm9.197 0a1.323 1.323 0 011.625-.922 1.323 1.323 0 01.302 2.423 1.313 1.313 0 01-1.003.125 1.314 1.314 0 01-.798-.621 1.313 1.313 0 01-.126-1.004z"/><path fill="#7B71FF" stroke="#000" stroke-width=".436" d="M39.825 44.53c.509-.219 1.614-.917 1.963-1.964l2.836-.873c.218.291 1.222.916 3.49 1.091 2.27.175 2.255 2.981 1.964 4.363l1.09 2.4-1.308 1.963-1.527.436-1.745 2.181h-1.964l-1.745-1.09h-1.963l-1.527-1.527.436-1.964-1.09-2.617 1.09-2.4z"/><path fill="#000" d="M44.026 42.435c.453 0 .872.144 1.215.388-.902.47-1.731 1.061-2.611 1.57l.698 1.208c1.1-.635 2.13-1.43 3.323-1.889a2.095 2.095 0 012.832 2.157c-.858-.546-1.785-.97-2.665-1.477l-.698 1.21c1.1.635 2.305 1.129 3.297 1.933a2.095 2.095 0 01-.452 3.53c.045-1.016-.053-2.03-.053-3.046h-1.396c0 1.27.175 2.561-.026 3.823a2.095 2.095 0 01-3.284 1.373c.902-.47 1.733-1.06 2.612-1.568l-.698-1.21c-1.1.636-2.13 1.432-3.323 1.89a2.095 2.095 0 01-2.832-2.157c.859.545 1.785.968 2.665 1.477l.698-1.21c-1.1-.635-2.305-1.129-3.298-1.933a2.096 2.096 0 01.453-3.531c-.045 1.016.052 2.03.052 3.046h1.397c0-1.269-.175-2.56.025-3.822a2.095 2.095 0 012.069-1.762zm2.648-.18a3.491 3.491 0 00-5.968 1.193 3.49 3.49 0 00-1.95 5.765 3.492 3.492 0 004.019 4.571 3.49 3.49 0 005.967-1.194 3.491 3.491 0 001.95-5.764 3.491 3.491 0 00-4.018-4.571z"/></g><defs><clipPath id="clip0_5175_247"><path fill="#fff" d="M0 0h65v65H0z"/></clipPath></defs></svg>
